!!!COM: Palestrina, Giovanni Perluigi da
!!!OPR: Missa Dilexi quoniam
!!!OMD: Credo
!!!OTL: Crucifixus
**kern	**kern	**kern	**kern
*Itenor	*Itenor	*Icalto	*Icant
!Tenor 2	!Tenor 1	!Altus	!Cantus
*clefGv2	*clefGv2	*clefG2	*clefG2
*k[]	*k[]	*k[]	*k[]
*C:ion	*C:ion	*C:ion	*C:ion
*M4/2	*M4/2	*M4/2	*M4/2
=77	=77	=77	=77
0r	0r	1r	0dd
.	.	[1g	.
=78	=78	=78	=78
0r	0r	2g]	1b
.	.	2g	.
.	.	1cc	1ee
=79	=79	=79	=79
0r	0r	1b	1dd
.	.	2r	2.gg
.	.	[2cc	.
.	.	.	4ff
=80	=80	=80	=80
0r	0r	2cc]	2ee
.	.	2b	2dd
.	.	2a	2cc
.	.	2g	2b
=81	=81	=81	=81
0r	0r	4f	4a
.	.	4e	4g
.	.	4f	4a
.	.	4d	4b
.	.	4e	4cc
.	.	4f	4dd
.	.	[2g	2b
=82	=82	=82	=82
0d	1r	2g]	1a
.	.	2f#	.
.	[1G	[1g	2.b
.	.	.	4cc
=83	=83	=83	=83
1B	2G]	1g]	4dd
.	.	.	4cc
.	2G	.	4b
.	.	.	4a
1e	1c	1r	1g
=84	=84	=84	=84
1d	1B	0r	0r
2.g	2r	.	.
.	[2c	.	.
4f	.	.	.
=85	=85	=85	=85
2e	2c]	0r	0r
2d	2B	.	.
2c	2A	.	.
2B	2G	.	.
=86	=86	=86	=86
4A	4c	2.a	0r
4G	4B	.	.
4A	4c	.	.
4B	4d	4g	.
4c	4e	2a	.
4d	4f#	.	.
2B	[2g	2b	.
=87	=87	=87	=87
1A	2g]	1cc	1r
.	2f#	.	.
1G	1g	2b	2r
.	.	2b	2g
=88	=88	=88	=88
0r	1r	2.a	2.cc
.	.	4g	4b
.	2r	2a	2cc
.	2G	2b	2dd
=89	=89	=89	=89
0r	2.c	4cc	1.ee
.	.	4b	.
.	.	4a	.
.	4B	4g	.
.	2c	1a	.
.	2d	.	4dd
.	.	.	4cc
=90	=90	=90	=90
2r	1e	1g	2b
1g	.	.	4a
.	.	.	4g
.	1d	1r	1a
2f	.	.	.
=91	=91	=91	=91
2e	4G	1r	1b
.	4A	.	.
2d	4B	.	.
.	8A	.	.
.	8B	.	.
2e	1c	2r	2r
2c	.	[2cc	[2ee
=92	=92	=92	=92
1g	0r	2cc]	2ee]
.	.	2b	2dd
1r	.	2a	2cc
.	.	2g	2b
=93	=93	=93	=93
0r	2r	2a	2cc
.	1a	2f	2dd
.	.	1e	1ee
.	2g	.	.
=94	=94	=94	=94
0r	2f	2a	2dd
.	2e	2g	2cc
.	2f	2a	2cc
.	2d	2f	2b
=95	=95	=95	=95
2r	0c	2g	[0cc
2e	.	2g	.
2e	.	2g	.
2e	.	2g	.
=96	=96	=96	=96
1f	1r	1a	1cc]
2.e	1c	1g	2r
.	.	.	2ee
4f	.	.	.
=97	=97	=97	=97
4g	2c	2r	2ee
4e	.	.	.
1a	2c	2cc	2ee
.	1d	2a	1ff
4g	.	2b	.
4f	.	.	.
=98	=98	=98	=98
1g	2c	1.cc	2ee
.	2c	.	2ee
1r	2A	.	2cc
.	2B	2b	2dd
=99	=99	=99	=99
0r	2.c	2a	2.ee
.	.	1g	.
.	4B	.	4dd
.	1A	.	1cc
.	.	2f#	.
=100	=100	=100	=100
2r	2G	2g	2b
2g	2G	2b	2dd
4g	1c	[1cc	1ee
4f	.	.	.
4e	.	.	.
4d	.	.	.
=101	=101	=101	=101
1c	4A	2cc]	2.ee
.	4B	.	.
.	4c	2g	.
.	4d	.	4dd
2A	2e	1a	2cc
2d	2f	.	2dd
=102	=102	=102	=102
2.c	4g	1cc	0ee
.	4e	.	.
.	1a	.	.
4d	.	.	.
1e	.	1b	.
.	2g#	.	.
=103	=103	=103	=103
0A	1a	2r	1ee
.	.	2a	.
.	2r	[1cc	2r
.	2A	.	2a
=104	=104	=104	=104
0r	2A	2cc]	2cc
.	2B	2b	2dd
.	2c	2a	2ee
.	2d	2a	2ff
=105	=105	=105	=105
1r	1e	4g	2.gg
.	.	4a	.
.	.	4b	.
.	.	8a	4ff
.	.	8b	.
2r	1c	2.cc	4ee
.	.	.	4dd
2A	.	.	4ee
.	.	4b	4dd
=106	=106	=106	=106
2A	0r	2a	2cc
2B	.	1g	2b
2c	.	.	1a
2d	.	2f#	.
=107	=107	=107	=107
1e	1r	2.g	[0g
.	.	4f	.
2c	2r	1e	.
2e	2c	.	.
=108	=108	=108	=108
2e	2c	0r	1g]
2e	2c	.	.
2d	2f	.	1r
2c	2e	.	.
=109	=109	=109	=109
2d	2f	0r	0r
2.e	2.g	.	.
4d	4f	.	.
[2c	2e	.	.
=110	=110	=110	=110
2c]	1d	2r	1r
2B	.	2g	.
2c	1e	2g	2r
2c	.	2g	2ee
=111	=111	=111	=111
2c	0r	2.cc	2ee
2c	.	.	2ee
.	.	4b	.
2f	.	2a	2dd
2e	.	2g	2cc
=112	=112	=112	=112
2f	1r	2a	2dd
2.g	.	2.b	2ee
.	1G	.	2dd
4f	.	4a	.
2e	.	4g	[2cc
.	.	4f	.
=113	=113	=113	=113
1d	2G	0g	4cc]
.	.	.	8b
.	.	.	8a
.	2G	.	2b
2e	2c	.	2cc
[2g	2B	.	2dd
=114	=114	=114	=114
2g]	2c	1a	4cc
.	.	.	4b
4f#	2.d	.	4a
4e	.	.	4g
2f#	.	2r	2a
.	4c	.	.
2g	2B	2d	2b
=115	=115	=115	=115
1c	1A	2e	1cc
.	.	2f#	.
1d	1G	1g	2r
.	.	.	2b
=116	=116	=116	=116
0r	2A	1f	2cc
.	2B	.	2dd
.	1c	2e	1ee
.	.	[2g	.
=117	=117	=117	=117
0r	1B	4g]	1dd
.	.	4f	.
.	.	4d	.
.	.	4e	.
.	2A	2f	2cc
.	[2c	4e	[2ee
.	.	4d	.
=118	=118	=118	=118
1r	4c]	4e	4ee]
.	4B	4f#	4dd
.	2G	1g	2b
2r	1A	.	1cc
2c	.	2f#	.
=119	=119	=119	=119
2d	1G	1g	1b
2e	.	.	.
1f	1r	1d	2r
.	.	.	2a
=120	=120	=120	=120
1e	0r	2.g	2b
.	.	.	2cc
.	.	4a	.
2d	.	2b	1dd
[2f	.	[2a	.
=121	=121	=121	=121
4f]	0r	4a]	2.cc
4e	.	4g	.
2c	.	1g	.
.	.	.	4b
1d	.	.	1a
.	.	2f#	.
=122	=122	=122	=122
0e	0c	1g	2g
.	.	.	2gg
.	.	2r	4gg
.	.	.	4ff
.	.	2cc	4ee
.	.	.	4dd
=123	=123	=123	=123
0c	1A	4cc	2ee
.	.	4b	.
.	.	4a	1cc
.	.	4g	.
.	1F	2a	.
.	.	[2f	[2a
=124	=124	=124	=124
1d	2B-	2f]	2a]
.	2B-	1d	2g
2e	1A	.	[1a
2e	.	2c#	.
=125	=125	=125	=125
2.d	2r	2d	1a_
.	1d	1f	.
8c	.	.	.
8B	.	.	.
1A	.	.	1a_
.	2c#	2e	.
=126	=126	=126	=126
0r	1d	1f	1a]
.	2c	2e	1r
.	2B	2d	.
=127	=127	=127	=127
2r	2c	2e	1r
1g	2B	2d	.
.	1A	1c	2r
2f#	.	.	[2cc
=128	=128	=128	=128
1g	1G	1d	2cc]
.	.	.	2b
2f	1r	2r	1cc
2e	.	[2g	.
=129	=129	=129	=129
1d	0r	2g]	2b
.	.	2f#	2a
1G	.	1g	4b
.	.	.	4cc
.	.	.	4dd
.	.	.	4b
=130	=130	=130	=130
1A	0r	2f	4cc
.	.	.	4dd
.	.	2e	2ee
1F	.	2f	2dd
.	.	2e	[2cc
=131	=131	=131	=131
1G	2r	1d	2cc]
.	1g	.	2b
1A	.	2c	1cc
.	2f#	[2cc	.
=132	=132	=132	=132
1G	1g	2cc]	2r
.	.	2b	1dd
2r	2f	2a	.
[2g	2e	2g	2cc
=133	=133	=133	=133
2g]	1d	1a	1dd
2f#	.	.	.
1g	1e	2r	2cc
.	.	2e	2b
=134	=134	=134	=134
2f	2.A	2c	2.cc
2e	.	2c	.
.	4G	.	4b
2f	1F	4d	1a
.	.	4c	.
2e	.	[2c	.
=135	=135	=135	=135
1d	1G	2c]	2g
.	.	2B	2gg
1c	2r	4c	4gg
.	.	4d	4ff
.	2c	4e	4ee
.	.	4f	4dd
=136	=136	=136	=136
2r	4c	2g	4ee
.	4B	.	4dd
2e	4A	1a	4cc
.	4G	.	4b
2f	2F	.	2a
2d	2G	[2g	2b
=137	=137	=137	=137
1c	1A	2g]	1cc
.	.	2f#	.
[1d	[1G	[1g	[1b
=138	=138	=138	=138
1d]	1G]	1g]	1b]
*-	*-	*-	*-
!!!CDT: 1525/^1526/-1594/2/2
!!!OCY: Italia
!!!AGN: Mass (Parody)
!!!AST: renaissance, vocal
!!!ASW: Motet (Maffoni)
!!!PWK: Masses, Book 6
!!!RNB: Cadence finals: G,A
!!!YOR: Le Opere Complete, v. 21, p. 105
!!!YOO: Rome, Italy: Fratelli Scalera
!!!END: 1992//
!!!EED: John Miller
!!!YEC: Copyright 2000, John Miller
!!!YEN: United States of America
!!!YEM: Rights to all derivative electronic formats reserved.
!!!YEM: Refer to licensing agreement for further details.
!!!YEM: This file must be accompanied by the licensing agreement.
!!!YEM: A copy of the licensing agreement may be found at http://www.music-cog.ohio-state.edu/HumdrumDatabases/Palestrina/license.txt
!!!EMD: converted to Humdrum by Bret Aarden
